X: 34155
T: Reel For Anna
R: reel
M: 4/4
K: Amajor
|:ce(3eee fecA|F2dF FAEB|AEAB ce(3eee|afea fBaf|
e3f fecA|F2dF FAEB|AEAB ceaf|1 ecBc AEAB:|2 ecBc ABce||
|:aece f3g|afec BAFA|aece fgaf|ecBd cA(3bce|
aece f3g|afec BAFA|c2Ac BAFA|1 EAAG Abce:|2 EAGB AEAB||

